icon-themes/sifr_svg/cmd/lc_togglesheetgrid.svg

<svg viewBox="0 0 24 24" xmlns="http://www.w3.org/2000/svg"><path d="m2 3v19h7v-.414062l1.585938-1.585938h-.585938v-2.585938l-1-1v-.414062h-5v-3h5v1h1v-1h3.101562l1.898438-1.783203v-2.216797h2.363281l1-.9394531.01172-.00977c.021133-.0185831.046847-.03252.068358-.0507769h-3.443359v-3h5v2.1601562c.319748-.0924735.649767-.1601562 1-.1601562h1v-4zm2 2h5v3h-5zm6 0h4v3h-4zm11 3c-.748763 0-1.4.3039097-1.964844.8007812l-6.603515 6.1992188h2.695312l5.134766-4.683594c.302146-.316406.466536-.316406.738281-.316406h1v1c0 .552284.447715 1 1 1s1-.447716 1-1v-1c0-1.402542-.315061-2-2-2zm-17 1h5v3h-5zm6 0h4v3h-4zm10.992188 2c-.0051.0052-.0017.0014-.0078.0078l-2.181654 1.9922h1.197266v3h-1v.414062l-.585938.585938h1.585938v3h-2.585938l1.585938 1.585938v.414062h3v-9.28125c-.592739-.349728-1-.990157-1-1.71875-.0057 0-.0027-.000029-.0078 0zm-10.992188 4v1l3 3-3 3v1h1l3-3 3 3h1v-1l-3-3 3-3v-1h-1l-3 3-3-3zm-6 2h5v3h-5z" fill="#555753"/></svg>

<svg xmlns="http://www.w3.org/2000/svg" viewBox="0 0 24 24">
  <path
     style="fill:#555753"
     d="M 2,3 V 22 H 9 V 21.585938 L 10.585938,20 H 10 v -2.585938 l -1,-1 V 16 H 4 v -3 h 5 v 1 h 1 v -1 h 3.101562 L 15,11.216797 V 9 h 2.363281 l 1,-0.9394531 0.01172,-0.00977 C 18.396134,8.0321938 18.421848,8.0182569 18.443359,8 H 15 V 5 h 5 V 7.1601562 C 20.319748,7.0676827 20.649767,7 21,7 h 1 V 3 Z M 4,5 H 9 V 8 H 4 Z m 6,0 h 4 V 8 H 10 Z M 21,8 C 20.251237,8 19.6,8.3039097 19.035156,8.8007812 L 12.431641,15 h 2.695312 l 5.134766,-4.683594 C 20.563865,10 20.728255,10 21,10 h 1 v 1 c 0,0.552284 0.447715,1 1,1 0.552285,0 1,-0.447716 1,-1 V 10 C 24,8.597458 23.684939,8 22,8 Z M 4,9 h 5 v 3 H 4 Z m 6,0 h 4 v 3 h -4 z m 10.992188,2 c -0.0051,0.0052 -0.0017,0.0014 -0.0078,0.0078 L 18.802734,13 H 20 v 3 h -1 v 0.414062 L 18.414062,17 H 20 v 3 H 17.414062 L 19,21.585938 V 22 h 3 V 12.71875 C 21.407261,12.369022 21,11.728593 21,11 c -0.0057,0 -0.0027,-2.9e-5 -0.0078,0 z M 10,15 v 1 l 3,3 -3,3 v 1 h 1 l 3,-3 3,3 h 1 v -1 l -3,-3 3,-3 v -1 h -1 l -3,3 -3,-3 z m -6,2 h 5 v 3 H 4 Z"
     />
</svg>
